contributed-vectors/poco_launcher.svg

<svg xmlns="http://www.w3.org/2000/svg" xml:space="preserve" style="fill-rule:evenodd;clip-rule:evenodd;stroke-linejoin:round;stroke-miterlimit:2" viewBox="0 0 192 192"><circle cx="88" cy="88" r="88" style="fill:#fff" transform="translate(8 8)"/><path d="M128.236 67.957v42.421H117.47v9.612h-3.939v4.723l-.049.02h-6.575v2.044a42.155 42.155 0 0 1-9.156 1.001 41.888 41.888 0 0 1-15.767-3.06v.907h-8.962v7.37h-9.344V67.957h64.558ZM81.984 87.054c.348 8.401 7.279 15.116 15.767 15.116 8.709 0 15.78-7.071 15.78-15.78 0-8.71-7.071-15.781-15.78-15.781-8.488 0-15.419 6.715-15.767 15.116v1.329Z" style="fill:#8c72bd" transform="matrix(.9281 0 0 .9281 5.277 6.295)"/><path d="M81.984 124.718v12.842c0 6.671-5.408 12.079-12.079 12.079h-2.13c-6.671 0-12.079-5.408-12.079-12.079V85.724c0-23.211 18.844-42.055 42.055-42.055 10.408 0 19.937 3.789 27.281 10.059-.121-.031-37.38-9.419-42.797 29.771-.156.786-.251 41.219-.251 41.219Z" style="fill:#9abeff" transform="matrix(.9281 0 0 .9281 5.277 6.295)"/><path d="M98.118 70.62a6.679 6.679 0 0 0-.367-.011c-7.725 0-14.162 5.563-15.517 12.897l.001-.007c5.417-39.19 42.676-29.802 42.797-29.771-.213-.182.217.177 0 0 9.411 7.717 14.774 18.891 14.774 31.996 0 21.263-15.815 38.862-36.315 41.665.114-.084 31.237-21.628 6.636-50.786l-.028-.033c-2.822-3.54-7.133-5.841-11.981-5.95Z" style="fill:#bd9aff" transform="matrix(.9281 0 0 .9281 5.277 6.295)"/></svg>

<?xml version="1.0" encoding="UTF-8" standalone="no"?>
<!DOCTYPE svg PUBLIC "-//W3C//DTD SVG 1.1//EN" "http://www.w3.org/Graphics/SVG/1.1/DTD/svg11.dtd">
<svg width="100%" height="100%" viewBox="0 0 192 192" version="1.1" xmlns="http://www.w3.org/2000/svg" xmlns:xlink="http://www.w3.org/1999/xlink" xml:space="preserve" xmlns:serif="http://www.serif.com/" style="fill-rule:evenodd;clip-rule:evenodd;stroke-linejoin:round;stroke-miterlimit:2;">
    <g id="Layer1">
        <g transform="matrix(1,0,0,1,8,8)">
            <circle cx="88" cy="88" r="88" style="fill:white;"/>
        </g>
        <g transform="matrix(0.928108,0,0,0.928108,5.27657,6.29461)">
            <path d="M128.236,67.957L128.236,110.378L117.47,110.378L117.47,119.99L113.531,119.99L113.531,124.713L113.482,124.733L106.907,124.733L106.907,126.777C103.961,127.432 100.896,127.778 97.751,127.778C92.176,127.778 86.852,126.691 81.984,124.718L81.984,125.625L73.022,125.625L73.022,132.995L63.678,132.995L63.678,67.957L128.236,67.957ZM81.984,87.054C82.332,95.455 89.263,102.17 97.751,102.17C106.46,102.17 113.531,95.099 113.531,86.39C113.531,77.68 106.46,70.609 97.751,70.609C89.263,70.609 82.332,77.324 81.984,85.725L81.984,87.054Z" style="fill:rgb(140,114,189);"/>
            <path d="M81.984,124.718C81.984,124.718 81.984,137.56 81.984,137.56C81.984,144.231 76.576,149.639 69.905,149.639C69.197,149.639 68.484,149.639 67.775,149.639C61.104,149.639 55.696,144.231 55.696,137.56L55.696,85.724C55.696,62.513 74.54,43.669 97.751,43.669C108.159,43.669 117.688,47.458 125.032,53.728C124.911,53.697 87.652,44.309 82.235,83.499C82.079,84.285 81.984,124.718 81.984,124.718Z" style="fill:rgb(154,190,255);"/>
            <path d="M98.118,70.62C97.991,70.613 97.869,70.609 97.751,70.609C90.026,70.609 83.589,76.172 82.234,83.506L82.235,83.499C87.652,44.309 124.911,53.697 125.032,53.728C124.819,53.546 125.249,53.905 125.032,53.728C134.443,61.445 139.806,72.619 139.806,85.724C139.806,106.987 123.991,124.586 103.491,127.389C103.605,127.305 134.728,105.761 110.127,76.603L110.099,76.57C107.277,73.03 102.966,70.729 98.118,70.62Z" style="fill:rgb(189,154,255);"/>
        </g>
    </g>
</svg>
